X:002
T:Walter Bulwer's No 3
M:4/4
K:G
GA | B2 B2 BAGA | B2 DD D2 D2 | E2 G2 G2 A2 | G6 FE | 
D2 G2 A2 B2 | d2 B4 A2 | G2 E2 F2 G2 | A6 GA | 
B2 B2 BAGA | B2 DD D2 D2 | E2 G2 G2 A2 | G6 FE | 
D2 B2 c2 B2 | A2 E4 A2 | G2 D2 B3 A | G4 || 
d3 c | B2 B2 d3 A | G2 G2 B4 | D2 E2 F2 G2 | c6 B2 | 
c2 e2 A3 B | c2 e2 A3 G | G2 F2 EF E2 | D6 d2 | 
e2 d2 B2 G2 | D6 G2 | F2 G2 A2 B2 | c6 c2 | 
d2 c2 A2 F2 | d2 c2 A2 F2 | D2 D2 E2 F2 | G4 G2 || 

